icon/pk/table-report.svg

<svg viewBox="0 0 48 48" fill="none" xmlns="http://www.w3.org/2000/svg" height="1em" width="1em">
  <path d="M5 7C5 5.34315 6.34315 4 8 4H32C33.6569 4 35 5.34315 35 7V44H8C6.34315 44 5 42.6569 5 41V7Z" fill="#2F88FF" stroke="black" stroke-width="4" stroke-linejoin="round"/>
  <path d="M35 24C35 22.8954 35.8954 22 37 22H41C42.1046 22 43 22.8954 43 24V41C43 42.6569 41.6569 44 40 44H35V24Z" stroke="black" stroke-width="4" stroke-linejoin="round"/>
  <path d="M11 12H19" stroke="white" stroke-width="4" stroke-linecap="round" stroke-linejoin="round"/>
  <path d="M11 19H23" stroke="white" stroke-width="4" stroke-linecap="round" stroke-linejoin="round"/>
</svg>

<svg width="48" height="48" fill="none" xmlns="http://www.w3.org/2000/svg"><path d="M5 7a3 3 0 0 1 3-3h24a3 3 0 0 1 3 3v37H8a3 3 0 0 1-3-3V7Z" fill="#2F88FF" stroke="#000" stroke-width="4" stroke-linejoin="round"/><path d="M35 24a2 2 0 0 1 2-2h4a2 2 0 0 1 2 2v17a3 3 0 0 1-3 3h-5V24Z" stroke="#000" stroke-width="4" stroke-linejoin="round"/><path d="M11 12h8M11 19h12" stroke="#fff" stroke-width="4" stroke-linecap="round" stroke-linejoin="round"/></svg>
